X: 69
T:Ap Siencyn
M:6/8
L:1/8
Q:130
C:Trad
S:Blodau'r Grug Collection Vol. 2
R:jig
A:Wales
Z:brian_martin12345@yahoo.com
K:G
d/c/|B2B Bgf|e2e efg|ded dcB|cAA A2d/c/|BcB Bgf|efe efg|
ded cBA|G2B G2:||
g/a/|b2g a2f|gfg dcB|cde dgB|BAA A2 g/a/|!b2g a2f|gfe agf|
bag fge|dgf edc|B2B Bgf|e2e efg|!ded dcB|cAA A2 d/c/|
B2B Bgf|efe efg|ded cBA|G2B G2||

